X:22
T:RVW2/2/22 The Farmer's Boy
C:Mrs. Charles White, 14 April 1904, Willingale Doe, Essex
L:1/8
Q:1/4=100
M:3/4
I:linebreak $
K:G
"^(Editorial suggestion)  " G2 | BB c2 (AF) | GG G3"^(a)" d |"^(b)" ee g3 e | d4 |:$ d2 | gg e3 c | 
w: The|sun had set be- *|hind yon hill a-|cross yon drea- ry|moor|When|weary and lame a|
gg G3 A | B"^(c)"e d3 F | G4 :|$ G2 | BB c2 AF | GG G3"^(a) var." G |"^(b) var." BB d3 e | d4 |:$ 
w: boy there came un-|to a far- mer's|door||||||
d2 | gg e3 c | ee G3 A | BB"^(c) var." c A2 F | G4 :| 
w: |||||



